icons/cursor-circle-1.svg

<svg xmlns="http://www.w3.org/2000/svg" viewBox="0 0 24 24" fill="currentColor">
  <path d="M3.6875 11.9181c0-4.5858 3.66421-8.25001 8.25-8.25001 4.5858 0 8.25 3.66421 8.25 8.25001 0 .4142.3358.75.75.75s.75-.3358.75-.75c0-5.41422-4.3358-9.75001-9.75-9.75001-5.41421 0-9.75 4.33579-9.75 9.75001 0 5.4142 4.33579 9.75 9.75 9.75.4142 0 .75-.3358.75-.75s-.3358-.75-.75-.75c-4.58579 0-8.25-3.6642-8.25-8.25Zm11.7187 7.0137-1.739-5.2838 5.2838 1.7389-2.204.3857c-.2723.027-.471.1714-.5899.2903-.1302.1302-.2228.2846-.2905.4199l-.049.0981-.4114 2.3509Zm-2.8397-7.0425c.1695-.0498.401-.0689.6383.0273l7.8698 2.5901c.5371.179.7379.683.7379 1.049 0 .1947-.0518.4334-.2132.642-.1615.2084-.4019.3434-.6758.3669l-3.6933.6463-.6636 3.7916-.0176.0529c-.1312.3935-.481.726-.9369.7716-.242.0242-.5021-.0381-.7192-.2105-.2016-.1601-.3167-.3749-.3747-.5845l-2.5399-7.7176c-.0127-.0179-.025-.0365-.0367-.056-.0994-.1658-.1296-.3436-.1175-.5009.022-.2861.1763-.4879.2831-.5946.1191-.1192.2765-.2199.4593-.2736Z"/>
</svg>

<svg width="24" height="24" viewBox="0 0 24 24" fill="none" xmlns="http://www.w3.org/2000/svg">
<path fill-rule="evenodd" clip-rule="evenodd" d="M3.6875 11.9181C3.6875 7.3323 7.35171 3.66809 11.9375 3.66809C16.5233 3.66809 20.1875 7.3323 20.1875 11.9181C20.1875 12.3323 20.5233 12.6681 20.9375 12.6681C21.3517 12.6681 21.6875 12.3323 21.6875 11.9181C21.6875 6.50388 17.3517 2.16809 11.9375 2.16809C6.52329 2.16809 2.1875 6.50388 2.1875 11.9181C2.1875 17.3323 6.52329 21.6681 11.9375 21.6681C12.3517 21.6681 12.6875 21.3323 12.6875 20.9181C12.6875 20.5039 12.3517 20.1681 11.9375 20.1681C7.35171 20.1681 3.6875 16.5039 3.6875 11.9181ZM15.4062 18.9318L13.6672 13.648L18.951 15.3869L16.747 15.7726C16.4747 15.7996 16.276 15.944 16.1571 16.0629C16.0269 16.1931 15.9343 16.3475 15.8666 16.4828L15.8176 16.5809L15.4062 18.9318ZM12.5665 11.8893C12.736 11.8395 12.9675 11.8204 13.2048 11.9166L21.0746 14.5067C21.6117 14.6857 21.8125 15.1897 21.8125 15.5557C21.8125 15.7504 21.7607 15.9891 21.5993 16.1977C21.4378 16.4061 21.1974 16.5411 20.9235 16.5646L17.2302 17.2109L16.5666 21.0025L16.549 21.0554C16.4178 21.4489 16.068 21.7814 15.6121 21.827C15.3701 21.8512 15.11 21.7889 14.8929 21.6165C14.6913 21.4564 14.5762 21.2416 14.5182 21.032L11.9783 13.3144C11.9656 13.2965 11.9533 13.2779 11.9416 13.2584C11.8422 13.0926 11.812 12.9148 11.8241 12.7575C11.8461 12.4714 12.0004 12.2696 12.1072 12.1629C12.2263 12.0437 12.3837 11.943 12.5665 11.8893Z" fill="black"/>
</svg>
